chevron-right-circle.svg

<svg fill="currentColor" viewBox="0 0 24 24"><path d="M22 12a10 10 0 0 1-10 10A10 10 0 0 1 2 12 10 10 0 0 1 12 2a10 10 0 0 1 10 10m-12 6 6-6-6-6-1.4 1.4 4.6 4.6-4.6 4.6z"/></svg>

<svg  viewBox="0 0 24 24" fill="currentColor"><path  d="M22,12A10,10 0 0,1 12,22A10,10 0 0,1 2,12A10,10 0 0,1 12,2A10,10 0 0,1 22,12M10,18L16,12L10,6L8.6,7.4L13.2,12L8.6,16.6L10,18Z"/></svg>
